svg/mkdocs.svg

<svg xmlns="http://www.w3.org/2000/svg" fill="none" viewBox="49.62 0 412.37 512"><g clip-path="url(#clip0_1_58)"><path fill="#000" d="M63.2984 17.6859C72.536 8.5954 83.6271 -1.05413 97.5718 0.0932232C207.511 0.2109 317.481 0.416834 427.421 0.681608C445.719 -0.318647 462.459 16.1267 461.694 34.4843C461.841 159.075 461.664 283.636 461.782 408.226C461.841 418.199 460.252 429.32 452.456 436.381C446.719 443 437.54 443.5 429.538 445.177C427.803 463.476 434.628 484.775 422.272 500.456C417.359 507.34 409.416 512.253 400.737 511.605C299.682 511.635 198.656 511.576 97.6012 511.665C83.3917 512.812 71.5063 503.457 61.9745 494.101C52.4721 484.834 49.03 471.037 49.7067 458.122C49.8832 321.881 49.7361 185.67 49.7655 49.4293C49.9126 37.6616 54.6491 25.8056 63.2984 17.6859ZM129.58 40.3682C129.492 162.046 129.462 283.724 129.609 405.402C128.285 411.433 134.11 412.963 138.788 412.345C235.225 412.139 331.631 412.639 428.068 412.08C428.421 407.844 428.715 403.549 428.774 399.283C428.685 279.635 428.803 159.928 428.715 40.2799C428.921 37.3086 428.097 32.2485 423.949 32.9545C327.954 32.6603 231.959 32.8074 135.993 32.8662C131.669 32.2485 128.874 36.3377 129.58 40.3682ZM59.974 413.698C59.1796 423.436 59.8563 433.203 59.7092 442.941C69.3587 429.026 79.7143 412.345 97.8071 409.227C97.8366 400.401 97.8366 391.575 97.8071 382.779C80.3321 384.132 66.6521 398.371 59.974 413.698ZM86.1865 469.36C91.5702 474.537 98.3073 479.657 106.25 478.832C199.51 478.774 292.768 478.832 386.028 478.803C391.529 478.832 397.678 478.274 401.443 473.684C409.387 466.771 407.092 455.091 408.004 445.765C307.478 445.765 206.923 445.765 106.398 445.765C94.571 444.736 78.6258 456.562 86.1865 469.36Z"/><path fill="#000" d="M207.511 91.9403C255.082 91.2927 302.712 91.7344 350.312 91.7344C354.667 91.0281 357.815 95.0289 357.05 99.2068C357.138 123.801 357.138 148.425 357.05 173.019C358.314 178.727 351.666 179.462 347.753 179.139C302.565 179.109 257.407 179.109 212.218 179.139C208.306 179.433 201.893 178.845 203.187 173.137C203.01 149.484 203.246 125.801 203.099 102.119C203.422 98.5299 202.275 92.2934 207.511 91.9403Z"/><path fill="#fff" d="M129.58 40.3682C128.874 36.3377 131.669 32.2485 135.993 32.8663C231.959 32.8074 327.954 32.6603 423.949 32.9545C428.097 32.2485 428.921 37.3086 428.715 40.2799C428.803 159.928 428.685 279.635 428.774 399.283C428.715 403.549 428.421 407.844 428.068 412.08C331.631 412.639 235.225 412.139 138.788 412.345C134.11 412.963 128.285 411.433 129.609 405.402C129.462 283.724 129.492 162.046 129.58 40.3682ZM207.511 91.9403C202.275 92.2934 203.422 98.5298 203.099 102.119C203.246 125.801 203.01 149.484 203.187 173.137C201.893 178.845 208.306 179.433 212.218 179.139C257.407 179.109 302.565 179.109 347.753 179.139C351.666 179.462 358.314 178.727 357.05 173.019C357.138 148.425 357.138 123.801 357.05 99.2068C357.815 95.0289 354.667 91.0281 350.312 91.7344C302.712 91.7344 255.082 91.2927 207.511 91.9403Z"/><path fill="#fff" d="M59.974 413.698C66.6521 398.371 80.3321 384.132 97.8071 382.779C97.8366 391.575 97.8366 400.401 97.8071 409.227C79.7143 412.345 69.3587 429.026 59.7092 442.941C59.8563 433.203 59.1796 423.436 59.974 413.698Z"/><path fill="#fff" d="M86.1865 469.359C78.6258 456.562 94.571 444.736 106.398 445.765C206.923 445.765 307.478 445.765 408.004 445.765C407.092 455.091 409.387 466.771 401.443 473.684C397.677 478.274 391.529 478.832 386.028 478.803C292.768 478.832 199.51 478.774 106.25 478.832C98.3073 479.657 91.5702 474.537 86.1865 469.359Z"/></g><defs><clipPath id="clip0_1_58"><rect width="412.368" height="512" fill="#fff" transform="translate(49.6243)"/></clipPath></defs></svg>

<svg xmlns="http://www.w3.org/2000/svg" fill="none" viewBox="49.62 0 412.37 512"><g clip-path="url(#a)"><path fill="#000" d="M63.298 17.686c9.238-9.09 20.33-18.74 34.274-17.593C207.51.211 317.48.417 427.42.682c18.298-1 35.038 15.445 34.273 33.802.147 124.591-.03 249.152.088 373.742.059 9.973-1.53 21.094-9.326 28.155-5.737 6.619-14.916 7.119-22.918 8.796-1.735 18.299 5.09 39.598-7.266 55.279-4.913 6.884-12.856 11.797-21.535 11.149-101.055.03-202.081-.029-303.136.06-14.21 1.147-26.095-8.208-35.626-17.564-9.503-9.267-12.945-23.064-12.268-35.979.176-136.241.03-272.452.059-408.693.147-11.767 4.883-23.623 13.532-31.743m66.282 22.682c-.088 121.678-.118 243.356.029 365.034-1.324 6.031 4.501 7.561 9.179 6.943 96.437-.206 192.843.294 289.28-.265.353-4.236.647-8.531.706-12.797-.089-119.648.029-239.355-.059-359.003.206-2.971-.618-8.032-4.766-7.325-95.995-.295-191.99-.148-287.956-.089-4.324-.617-7.119 3.472-6.413 7.502m-69.606 373.33c-.794 9.738-.118 19.505-.265 29.243 9.65-13.915 20.005-30.596 38.098-33.714.03-8.826.03-17.652 0-26.448-17.475 1.353-31.155 15.592-37.833 30.919m26.213 55.662c5.383 5.177 12.12 10.297 20.063 9.472 93.26-.058 186.518 0 279.778-.029 5.501.029 11.65-.529 15.415-5.119 7.944-6.913 5.649-18.593 6.561-27.919H106.398c-11.827-1.029-27.772 10.797-20.211 23.595"/><path fill="#000" d="M207.511 91.94c47.571-.647 95.201-.206 142.801-.206 4.355-.706 7.503 3.295 6.738 7.473.088 24.594.088 49.218 0 73.812 1.264 5.708-5.384 6.443-9.297 6.12-45.188-.03-90.346-.03-135.535 0-3.912.294-10.325-.294-9.031-6.002-.177-23.653.059-47.336-.088-71.018.323-3.59-.824-9.826 4.412-10.179"/><path fill="#fff" d="M129.58 40.368c-.706-4.03 2.089-8.12 6.413-7.502 95.966-.059 191.961-.206 287.956.089 4.148-.706 4.972 4.354 4.766 7.325.088 119.648-.03 239.355.059 359.003-.059 4.266-.353 8.561-.706 12.797-96.437.559-192.843.059-289.28.265-4.678.618-10.503-.912-9.179-6.943-.147-121.678-.117-243.356-.029-365.034m77.931 51.572c-5.236.353-4.089 6.59-4.412 10.179.147 23.682-.089 47.365.088 71.018-1.294 5.708 5.119 6.296 9.031 6.002 45.189-.03 90.347-.03 135.535 0 3.913.323 10.561-.412 9.297-6.12.088-24.594.088-49.218 0-73.812.765-4.178-2.383-8.179-6.738-7.473-47.6 0-95.23-.441-142.801.206M59.974 413.698c6.678-15.327 20.358-29.566 37.833-30.919.03 8.796.03 17.622 0 26.448-18.093 3.118-28.448 19.799-38.098 33.714.147-9.738-.53-19.505.265-29.243M86.187 469.359c-7.561-12.797 8.384-24.623 20.211-23.594h301.606c-.912 9.326 1.383 21.006-6.561 27.919-3.766 4.59-9.914 5.148-15.415 5.119-93.26.029-186.518-.029-279.778.029-7.943.825-14.68-4.295-20.064-9.473"/></g><defs><clipPath id="a"><path fill="#fff" d="M49.624 0h412.368v512H49.624z"/></clipPath></defs></svg>
